build/assets/img/telegram-icon.svg

<svg width="20" height="18" viewBox="0 0 20 18" fill="none" xmlns="http://www.w3.org/2000/svg">
<path d="M7.84765 11.651L7.51682 16.3044C7.99015 16.3044 8.19515 16.101 8.44098 15.8569L10.6601 13.736L15.2585 17.1035C16.1018 17.5735 16.696 17.326 16.9235 16.3277L19.9418 2.18434L19.9426 2.18351C20.2101 0.936842 19.4918 0.449342 18.6701 0.755175L0.928482 7.54767C-0.282352 8.01767 -0.264018 8.69267 0.722648 8.99851L5.25848 10.4094L15.7943 3.81684C16.2901 3.48851 16.741 3.67017 16.3701 3.99851L7.84765 11.651Z" fill="white"/>
</svg>

<svg width="20" height="18" fill="none" xmlns="http://www.w3.org/2000/svg"><path d="M7.848 11.651l-.331 4.653c.473 0 .678-.203.924-.447l2.22-2.121 4.598 3.367c.843.47 1.437.223 1.665-.775l3.018-14.144C20.21.937 19.493.449 18.67.755L.928 7.548c-1.21.47-1.192 1.145-.205 1.45l4.535 1.411 10.536-6.592c.496-.328.947-.147.576.182L7.848 11.65z" fill="#fff"/></svg>
